X: 41650
T: Up Wi Eli Eli
R: slip jig
M: 9/8
K: Amixolydian
|:A2a e2c e2 c|A2a e2c dcB|A2a e2c e2f|1 gfg BBc dcB:|2 g3 B2c dcB||
|:AAA cBc edB|A3 B2 c dcB|AAA cBc edB|gfg BBc dcB:|

